patrocinadores/calidae.svg

<svg height="111" viewBox="0 0 192 111" width="192" xmlns="http://www.w3.org/2000/svg" xmlns:xlink="http://www.w3.org/1999/xlink"><filter id="a" height="238.2%" width="259%" x="-79.5%" y="-79.7%"><feOffset dx="0" dy="-1" in="SourceAlpha" result="shadowOffsetOuter1"/><feGaussianBlur in="shadowOffsetOuter1" result="shadowBlurOuter1" stdDeviation="2"/><feColorMatrix in="shadowBlurOuter1" type="matrix" values="0 0 0 0 0   0 0 0 0 0   0 0 0 0 0  0 0 0 0.5 0"/></filter><filter id="b" height="238.2%" width="259%" x="-79.5%" y="-79.7%"><feOffset dx="0" dy="-1" in="SourceAlpha" result="shadowOffsetOuter1"/><feGaussianBlur in="shadowOffsetOuter1" result="shadowBlurOuter1" stdDeviation="2"/><feColorMatrix in="shadowBlurOuter1" type="matrix" values="0 0 0 0 0   0 0 0 0 0   0 0 0 0 0  0 0 0 0.5 0"/></filter><g fill="none" fill-rule="evenodd" transform=""><g transform="translate(42)"><path d="m54.0234053 0-22.6859053 43h9.9767147l13.7894719-26.1312411 12.7091906 26.1312411h9.8496228l-21.0337106-43z" fill="#c2d95d"/><path d="m73.16625 33.59375 4.49625 9.40625h-8.175z" fill="#000" filter="url(#a)" opacity=".255774"/><path d="m37.74125 33.59375 4.49625 9.40625h-8.175z" fill="#000" filter="url(#b)" opacity=".255774"/><g fill="#d4eb6e"><path d="m88.8372428 4.03125-19.3497428 38.96875h8.5095508l11.7616083-23.6814372 10.8401919 23.6814372h8.401149l-17.9405178-38.96875z"/><path d="m19.3497428 4.03125-19.3497428 38.96875h8.50955075l11.76160835-23.6814372 10.8401921 23.6814372h8.4011488l-17.9405178-38.96875z"/></g></g><path d="m22.1031575 72.8636364c-2.3345754-1.785124-5.2716219-2.8636364-8.434595-2.8636364-7.53088843 0-13.6685625 6.0619835-13.6685625 13.5s6.13767407 13.5 13.6685625 13.5c3.3135909 0 6.3636007-1.1900826 8.7358306-3.1239669l-3.3888998-3.8305786c-4.9703864 3.7190083-13.14140032.7809918-13.14140032-6.5454545 0-6.9917355 7.71916062-10.0413223 12.84016482-6.768595zm21.8395764-2.4545455-13.4426358 26.0702479h5.9117474l8.1710139-15.8429752 7.5308885 15.8429752h5.8364385l-12.4636204-26.0702479zm28.1278682 0h-5.2716219v26.0330579h15.0994313v-5.1694215h-9.8278094zm20.9358697 26.0330579v-26.0330579h5.271622v26.0330579zm16.3796822-26.0330579h7.45558c1.769758 0 3.501863.3347108 5.121004 1.0041322 1.581486.6694215 2.974701 1.5991736 4.179643 2.7892562 1.242596 1.2272728 2.183957 2.6033058 2.824083 4.1652893.715434 1.5991735 1.054324 3.3099174 1.054324 5.0578512 0 1.785124-.33889 3.4958678-1.054324 5.0950414-.640126 1.5619834-1.581487 2.9380165-2.824083 4.1280991-1.204942 1.1900827-2.598157 2.1570248-4.179643 2.7892562-1.619141.7066116-3.351246 1.0413223-5.121004 1.0413223h-5.309277v-.03719h-2.146303zm5.271622 20.8636364h2.183958c4.367915 0 7.907432-3.5330579 7.907432-7.8471075s-3.539517-7.8099173-7.907432-7.8099173h-2.183958zm35.77172-20.8636364-13.442636 26.0702479h5.911748l8.171013-15.8429752 7.530889 15.8429752h5.836438l-12.46362-26.0702479zm41.570504 0h-17.584624v26.0702479h17.471661v-5.2066115h-12.20004v-5.6528926h10.1667v-5.2066116h-10.1667v-4.7975206h12.313003z" fill="#4a4a4a"/><path d="m0 106.075758h1.49351769c.35452188 0 .70150073.061983 1.02585053.18595.31680679.123967.59589848.296143.83727507.516529.24891962.227273.43749508.482094.5657264.77135.14331736.296143.21120452.612947.21120452.936639 0 .330578-.06788716.647383-.21120452.943526-.12823132.289256-.31680678.544077-.5657264.764463-.24137659.220386-.52046828.399449-.83727507.516529-.3243498.130854-.67132865.192837-1.02585053.192837h-1.06356563v-.006887h-.42995206zm1.05602261 3.863636h.43749508c.87499016 0 1.58403391-.65427 1.58403391-1.453168s-.70904375-1.446281-1.58403391-1.446281h-.43749508zm8.60281294.9573v-4.820936h1.05602265v4.820936zm10.02844345-2.968319v.964187h1.1917969c-.1961184.647383-.8523611 1.150138-1.621749 1.150138-.4450381 0-.8674471-.16529-1.1842539-.461433-.3092637-.289256-.4827532-.681818-.4752102-1.088154 0-.406336.1810325-.792011.4978393-1.07438.3168068-.289256.7392158-.447659 1.1842539-.447659h.015086c.3394359.006887.6562427.096419.9277913.268595l.7618449-.681818c-.4601241-.337465-1.0409366-.544077-1.6820931-.550964h-.0226291c-1.5010607 0-2.7230297 1.101928-2.7381158 2.472452-.015086 1.384297 1.191797 2.493113 2.7079437 2.506887h.007543c1.4180875 0 2.6249705-1.053719 2.6249705-2.568871v-.48898zm8.1728609 2.968319v-4.820936h1.0560226v4.820936zm6.9207198-4.820936v.964187h1.4708886v3.863636h1.0560226v-3.863636h1.4633456v-.964187zm11.491789 0-2.6928576 4.827823h1.1842539l1.636835-2.933884 1.5086038 2.933884h1.1691679l-2.4967392-4.827823zm9.3872869 0h-1.0560226v4.820936h3.0247505v-.9573h-1.9687279zm19.6344779.454545c-.4676672-.330578-1.0560226-.530303-1.6896362-.530303-1.5086037 0-2.7381158 1.12259-2.7381158 2.5s1.2295121 2.5 2.7381158 2.5c.6637856 0 1.2747702-.220386 1.7499803-.578512l-.6788716-.709367c-.9956785.688705-2.6325136.144628-2.6325136-1.212121 0-1.294766 1.5463189-1.859504 2.5721694-1.253444zm8.0295435.502755c.2941777 0 .5280113.220386.5280113.488981s-.2338336.482093-.5280113.482093h-.407323v.964188l.9881354 1.935261h1.1239098l-1.0484796-2.066115c.5506404-.227273.9277913-.730028.9277913-1.315427 0-.798899-.7090437-1.453168-1.5840339-1.453168h-2.0667871v4.827823h1.0560226v-3.863636zm9.8021529-.9573-2.6928577 4.827823h1.184254l1.636835-2.933884 1.5086037 2.933884h1.1691679l-2.4967391-4.827823zm12.0047141 0h-3.522589v4.827823h1.056022v-2.011019h2.036615v-.964187h-2.036615v-.88843h2.466567zm5.751552 0v.964187h1.470889v3.863636h1.056022v-3.863636h1.463346v-.964187zm11.273042 2.789256.022629.006887c.55064.172176.87499.413223.87499.674931 0 .123967-.143317.488981-.580813.488981-.233833 0-.859904 0-1.418087-.544077l-.769388.661157c.362065.351239.784474.592286 1.259684.730027.377151.103306.693958.11708.927791.11708.475211 0 .905163-.179063 1.214426-.495868.264006-.268595.422409-.619834.422409-.9573 0-.344353-.143317-.668044-.414866-.943526-.271548-.268595-.663785-.482094-1.169167-.640496-.045259-.013774-.090517-.027548-.150861-.041322-.482753-.110193-.671328-.247934-.678871-.495868-.007543-.158402.045258-.23416.090516-.275482.135774-.130854.39978-.179064.467667-.179064.460124 0 .678872.130854 1.018307.330579l.188576.110193.55064-.819559-.173489-.103306c-.384694-.227273-.814646-.482094-1.584034-.482094-.271549 0-.837275.103306-1.229512.475207-.271549.261708-.407323.599173-.384694.984848.022629.461433.256463.833333.678872 1.088154.30172.185951.62607.261708.79956.303031zm11.86894 2.038567v-2.954545l-1.516147 1.26033-1.516147-1.26033v2.954545h-1.056022v-4.827823h.362064l2.210105 1.831955 2.202561-1.831955h.369608v4.827823zm9.500432-4.827823-2.692858 4.827823h1.184254l1.636835-2.933884 1.508604 2.933884h1.169168l-2.496739-4.827823zm12.359236 4.827823-2.971949-2.816804v2.816804h-1.056023v-4.827823h.331893l2.919148 2.699724v-2.699724h1.056023v4.827823zm7.976742-2.038567.022629.006887c.550641.172176.874991.413223.874991.674931 0 .123967-.143318.488981-.580813.488981-.233833 0-.859904 0-1.418087-.544077l-.769388.661157c.362065.351239.784474.592286 1.259684.730027.377151.103306.693958.11708.927791.11708.47521 0 .905162-.179063 1.214426-.495868.264006-.268595.422409-.619834.422409-.9573 0-.344353-.143317-.668044-.414866-.943526-.271548-.268595-.663785-.482094-1.169168-.640496-.045258-.013774-.090516-.027548-.15086-.041322-.482753-.110193-.671329-.247934-.678872-.495868-.007543-.158402.045258-.23416.090517-.275482.135774-.130854.39978-.179064.467667-.179064.460124 0 .678871.130854 1.018307.330579l.188576.110193.55064-.819559-.173489-.103306c-.384694-.227273-.814646-.482094-1.584034-.482094-.271549 0-.837275.103306-1.229512.475207-.271549.261708-.407323.599173-.384694.984848.022629.461433.256462.833333.678871 1.088154.301721.185951.626071.261708.79956.303031zm10.790289-.936639h-1.953642v-1.84573h-1.056023v4.820936h1.056023v-2.011019h1.953642v2.011019h1.056022v-4.820936h-1.056022zm7.033865 2.968319v-4.820936h1.056022v4.820936zm7.018779-4.820936h1.712265c.87499 0 1.584034.65427 1.584034 1.453168s-.709044 1.446281-1.584034 1.446281h-.656243v1.928374h-1.056022zm1.056022 1.935261h.656243c.286635 0 .528011-.213498.528011-.482093s-.241376-.488981-.528011-.488981h-.656243z" fill="#c8c8c8"/></g></svg>

<?xml version="1.0" encoding="UTF-8"?>
<svg width="192px" height="111px" viewBox="0 0 192 111" version="1.1" xmlns="http://www.w3.org/2000/svg" xmlns:xlink="http://www.w3.org/1999/xlink">
    <!-- Generator: Sketch 48.2 (47327) - http://www.bohemiancoding.com/sketch -->
    <title>Group 2</title>
    <desc>Created with Sketch.</desc>
    <defs>
        <polygon id="path-1" points="73.16625 33.59375 77.6625 43 69.4875 43"></polygon>
        <filter x="-79.5%" y="-79.7%" width="259.0%" height="238.2%" filterUnits="objectBoundingBox" id="filter-2">
            <feOffset dx="0" dy="-1" in="SourceAlpha" result="shadowOffsetOuter1"></feOffset>
            <feGaussianBlur stdDeviation="2" in="shadowOffsetOuter1" result="shadowBlurOuter1"></feGaussianBlur>
            <feColorMatrix values="0 0 0 0 0   0 0 0 0 0   0 0 0 0 0  0 0 0 0.5 0" type="matrix" in="shadowBlurOuter1"></feColorMatrix>
        </filter>
        <polygon id="path-3" points="37.74125 33.59375 42.2375 43 34.0625 43"></polygon>
        <filter x="-79.5%" y="-79.7%" width="259.0%" height="238.2%" filterUnits="objectBoundingBox" id="filter-4">
            <feOffset dx="0" dy="-1" in="SourceAlpha" result="shadowOffsetOuter1"></feOffset>
            <feGaussianBlur stdDeviation="2" in="shadowOffsetOuter1" result="shadowBlurOuter1"></feGaussianBlur>
            <feColorMatrix values="0 0 0 0 0   0 0 0 0 0   0 0 0 0 0  0 0 0 0.5 0" type="matrix" in="shadowBlurOuter1"></feColorMatrix>
        </filter>
    </defs>
    <g id="Claim" stroke="none" stroke-width="1" fill="none" fill-rule="evenodd" transform="translate(-452.000000, -403.000000)">
        <g id="Group-2" transform="translate(452.000000, 403.000000)">
            <g id="Group-7" transform="translate(42.000000, 0.000000)">
                <g id="Group">
                    <polygon id="A" fill="#C2D95D" points="54.0234053 0 31.3375 43 41.3142147 43 55.1036866 16.8687589 67.8128772 43 77.6625 43 56.6287894 0"></polygon>
                    <g id="Path-4" opacity="0.255774457" fill="black" fill-opacity="1">
                        <use filter="url(#filter-2)" xlink:href="#path-1"></use>
                    </g>
                    <g id="Path-4" opacity="0.255774457" fill="black" fill-opacity="1">
                        <use filter="url(#filter-4)" xlink:href="#path-3"></use>
                    </g>
                    <polygon id="A" fill="#D4EB6E" points="88.8372428 4.03125 69.4875 43 77.9970508 43 89.7586591 19.3185628 100.598851 43 109 43 91.0594822 4.03125"></polygon>
                    <polygon id="A" fill="#D4EB6E" points="19.3497428 4.03125 0 43 8.50955075 43 20.2711591 19.3185628 31.1113512 43 39.5125 43 21.5719822 4.03125"></polygon>
                </g>
            </g>
            <path d="M22.1031575,72.8636364 C19.7685821,71.0785124 16.8315356,70 13.6685625,70 C6.13767407,70 0,76.0619835 0,83.5 C0,90.9380165 6.13767407,97 13.6685625,97 C16.9821534,97 20.0321632,95.8099174 22.4043931,93.8760331 L19.0154933,90.0454545 C14.0451069,93.7644628 5.87409298,90.8264463 5.87409298,83.5 C5.87409298,76.5082645 13.5932536,73.4586777 18.7142578,76.731405 L22.1031575,72.8636364 Z M43.9427339,70.4090909 L30.5000981,96.4793388 L36.4118455,96.4793388 L44.5828594,80.6363636 L52.1137479,96.4793388 L57.9501864,96.4793388 L45.486566,70.4090909 L43.9427339,70.4090909 Z M72.0706021,70.4090909 L66.7989802,70.4090909 L66.7989802,96.4421488 L81.8984115,96.4421488 L81.8984115,91.2727273 L72.0706021,91.2727273 L72.0706021,70.4090909 Z M93.0064718,96.4421488 L93.0064718,70.4090909 L98.2780938,70.4090909 L98.2780938,96.4421488 L93.0064718,96.4421488 Z M109.386154,70.4090909 L116.841734,70.4090909 C118.611492,70.4090909 120.343597,70.7438017 121.962738,71.4132231 C123.544224,72.0826446 124.937439,73.0123967 126.142381,74.2024793 C127.384977,75.4297521 128.326338,76.8057851 128.966464,78.3677686 C129.681898,79.9669421 130.020788,81.677686 130.020788,83.4256198 C130.020788,85.2107438 129.681898,86.9214876 128.966464,88.5206612 C128.326338,90.0826446 127.384977,91.4586777 126.142381,92.6487603 C124.937439,93.838843 123.544224,94.8057851 121.962738,95.4380165 C120.343597,96.1446281 118.611492,96.4793388 116.841734,96.4793388 L111.532457,96.4793388 L111.532457,96.4421488 L109.386154,96.4421488 L109.386154,70.4090909 Z M114.657776,91.2727273 L116.841734,91.2727273 C121.209649,91.2727273 124.749166,87.7396694 124.749166,83.4256198 C124.749166,79.1115702 121.209649,75.6157025 116.841734,75.6157025 L114.657776,75.6157025 L114.657776,91.2727273 Z M150.429496,70.4090909 L136.98686,96.4793388 L142.898608,96.4793388 L151.069621,80.6363636 L158.60051,96.4793388 L164.436948,96.4793388 L151.973328,70.4090909 L150.429496,70.4090909 Z M192,70.4090909 L174.415376,70.4090909 L174.415376,96.4793388 L191.887037,96.4793388 L191.887037,91.2727273 L179.686997,91.2727273 L179.686997,85.6198347 L189.853697,85.6198347 L189.853697,80.4132231 L179.686997,80.4132231 L179.686997,75.6157025 L192,75.6157025 L192,70.4090909 Z" id="CALIDAE" fill="#4A4A4A"></path>
            <path d="M0,106.075758 L1.49351769,106.075758 C1.84803957,106.075758 2.19501842,106.137741 2.51936822,106.261708 C2.83617501,106.385675 3.1152667,106.557851 3.35664329,106.778237 C3.60556291,107.00551 3.79413837,107.260331 3.92236969,107.549587 C4.06568705,107.84573 4.13357421,108.162534 4.13357421,108.486226 C4.13357421,108.816804 4.06568705,109.133609 3.92236969,109.429752 C3.79413837,109.719008 3.60556291,109.973829 3.35664329,110.194215 C3.1152667,110.414601 2.83617501,110.593664 2.51936822,110.710744 C2.19501842,110.841598 1.84803957,110.903581 1.49351769,110.903581 L0.429952062,110.903581 L0.429952062,110.896694 L0,110.896694 L0,106.075758 Z M1.05602261,109.939394 L1.49351769,109.939394 C2.36850785,109.939394 3.0775516,109.285124 3.0775516,108.486226 C3.0775516,107.687328 2.36850785,107.039945 1.49351769,107.039945 L1.05602261,107.039945 L1.05602261,109.939394 Z M9.65883555,110.896694 L9.65883555,106.075758 L10.7148582,106.075758 L10.7148582,110.896694 L9.65883555,110.896694 Z M19.687279,107.928375 L19.687279,108.892562 L20.8790759,108.892562 C20.6829575,109.539945 20.0267148,110.0427 19.2573269,110.0427 C18.8122888,110.0427 18.3898798,109.87741 18.073073,109.581267 C17.7638093,109.292011 17.5903198,108.899449 17.5978628,108.493113 C17.5978628,108.086777 17.7788953,107.701102 18.0957021,107.418733 C18.4125089,107.129477 18.8349179,106.971074 19.279956,106.971074 L19.295042,106.971074 C19.6344779,106.977961 19.9512847,107.067493 20.2228333,107.239669 L20.9846782,106.557851 C20.5245541,106.220386 19.9437416,106.013774 19.3025851,106.006887 L19.279956,106.006887 C17.7788953,106.006887 16.5569263,107.108815 16.5418402,108.479339 C16.5267542,109.863636 17.7336372,110.972452 19.2497839,110.986226 L19.2573269,110.986226 C20.6754144,110.986226 21.8822974,109.932507 21.8822974,108.417355 L21.8822974,107.928375 L19.687279,107.928375 Z M27.8601399,110.896694 L27.8601399,106.075758 L28.9161625,106.075758 L28.9161625,110.896694 L27.8601399,110.896694 Z M34.7808597,106.075758 L34.7808597,107.039945 L36.2517483,107.039945 L36.2517483,110.903581 L37.3077709,110.903581 L37.3077709,107.039945 L38.7711165,107.039945 L38.7711165,106.075758 L34.7808597,106.075758 Z M46.2726487,106.075758 L43.5797911,110.903581 L44.764045,110.903581 L46.40088,107.969697 L47.9094838,110.903581 L49.0786517,110.903581 L46.5819125,106.075758 L46.2726487,106.075758 Z M55.6599356,106.075758 L54.603913,106.075758 L54.603913,110.896694 L57.6286635,110.896694 L57.6286635,109.939394 L55.6599356,109.939394 L55.6599356,106.075758 Z M75.2944135,106.530303 C74.8267463,106.199725 74.2383909,106 73.6047773,106 C72.0961736,106 70.8666615,107.12259 70.8666615,108.5 C70.8666615,109.87741 72.0961736,111 73.6047773,111 C74.2685629,111 74.8795475,110.779614 75.3547576,110.421488 L74.675886,109.712121 C73.6802075,110.400826 72.0433724,109.856749 72.0433724,108.5 C72.0433724,107.205234 73.5896913,106.640496 74.6155418,107.246556 L75.2944135,106.530303 Z M83.323957,107.033058 C83.6181347,107.033058 83.8519683,107.253444 83.8519683,107.522039 C83.8519683,107.790634 83.6181347,108.004132 83.323957,108.004132 L82.916634,108.004132 L82.916634,108.96832 L83.9047694,110.903581 L85.0286792,110.903581 L83.9801996,108.837466 C84.53084,108.610193 84.9079909,108.107438 84.9079909,107.522039 C84.9079909,106.72314 84.1989472,106.068871 83.323957,106.068871 L81.2571699,106.068871 L81.2571699,110.896694 L82.3131925,110.896694 L82.3131925,107.033058 L83.323957,107.033058 Z M93.1261099,106.075758 L90.4332522,110.903581 L91.6175062,110.903581 L93.2543412,107.969697 L94.7629449,110.903581 L95.9321128,110.903581 L93.4353737,106.075758 L93.1261099,106.075758 Z M105.130824,106.075758 L101.608235,106.075758 L101.608235,110.903581 L102.664257,110.903581 L102.664257,108.892562 L104.700872,108.892562 L104.700872,107.928375 L102.664257,107.928375 L102.664257,107.039945 L105.130824,107.039945 L105.130824,106.075758 Z M110.882376,106.075758 L110.882376,107.039945 L112.353265,107.039945 L112.353265,110.903581 L113.409287,110.903581 L113.409287,107.039945 L114.872633,107.039945 L114.872633,106.075758 L110.882376,106.075758 Z M122.155418,108.865014 L122.178047,108.871901 C122.728687,109.044077 123.053037,109.285124 123.053037,109.546832 C123.053037,109.670799 122.90972,110.035813 122.472224,110.035813 C122.238391,110.035813 121.61232,110.035813 121.054137,109.491736 L120.284749,110.152893 C120.646814,110.504132 121.069223,110.745179 121.544433,110.88292 C121.921584,110.986226 122.238391,111 122.472224,111 C122.947435,111 123.377387,110.820937 123.68665,110.504132 C123.950656,110.235537 124.109059,109.884298 124.109059,109.546832 C124.109059,109.202479 123.965742,108.878788 123.694193,108.603306 C123.422645,108.334711 123.030408,108.121212 122.525026,107.96281 C122.479767,107.949036 122.434509,107.935262 122.374165,107.921488 C121.891412,107.811295 121.702837,107.673554 121.695294,107.42562 C121.687751,107.267218 121.740552,107.19146 121.78581,107.150138 C121.921584,107.019284 122.18559,106.971074 122.253477,106.971074 C122.713601,106.971074 122.932349,107.101928 123.271784,107.301653 L123.46036,107.411846 L124.011,106.592287 L123.837511,106.488981 C123.452817,106.261708 123.022865,106.006887 122.253477,106.006887 C121.981928,106.006887 121.416202,106.110193 121.023965,106.482094 C120.752416,106.743802 120.616642,107.081267 120.639271,107.466942 C120.6619,107.928375 120.895734,108.300275 121.318143,108.555096 C121.619863,108.741047 121.944213,108.816804 122.117703,108.858127 L122.155418,108.865014 Z M134.024358,110.903581 L134.024358,107.949036 L132.508211,109.209366 L130.992064,107.949036 L130.992064,110.903581 L129.936042,110.903581 L129.936042,106.075758 L130.298106,106.075758 L132.508211,107.907713 L134.710772,106.075758 L135.08038,106.075758 L135.08038,110.903581 L134.024358,110.903581 Z M143.52479,106.075758 L140.831932,110.903581 L142.016186,110.903581 L143.653021,107.969697 L145.161625,110.903581 L146.330793,110.903581 L143.834054,106.075758 L143.52479,106.075758 Z M155.884026,110.903581 L152.912077,108.086777 L152.912077,110.903581 L151.856054,110.903581 L151.856054,106.075758 L152.187947,106.075758 L155.107095,108.775482 L155.107095,106.075758 L156.163118,106.075758 L156.163118,110.903581 L155.884026,110.903581 Z M163.860768,108.865014 L163.883397,108.871901 C164.434038,109.044077 164.758388,109.285124 164.758388,109.546832 C164.758388,109.670799 164.61507,110.035813 164.177575,110.035813 C163.943742,110.035813 163.317671,110.035813 162.759488,109.491736 L161.9901,110.152893 C162.352165,110.504132 162.774574,110.745179 163.249784,110.88292 C163.626935,110.986226 163.943742,111 164.177575,111 C164.652785,111 165.082737,110.820937 165.392001,110.504132 C165.656007,110.235537 165.81441,109.884298 165.81441,109.546832 C165.81441,109.202479 165.671093,108.878788 165.399544,108.603306 C165.127996,108.334711 164.735759,108.121212 164.230376,107.96281 C164.185118,107.949036 164.13986,107.935262 164.079516,107.921488 C163.596763,107.811295 163.408187,107.673554 163.400644,107.42562 C163.393101,107.267218 163.445902,107.19146 163.491161,107.150138 C163.626935,107.019284 163.890941,106.971074 163.958828,106.971074 C164.418952,106.971074 164.637699,107.101928 164.977135,107.301653 L165.165711,107.411846 L165.716351,106.592287 L165.542862,106.488981 C165.158168,106.261708 164.728216,106.006887 163.958828,106.006887 C163.687279,106.006887 163.121553,106.110193 162.729316,106.482094 C162.457767,106.743802 162.321993,107.081267 162.344622,107.466942 C162.367251,107.928375 162.601084,108.300275 163.023493,108.555096 C163.325214,108.741047 163.649564,108.816804 163.823053,108.858127 L163.860768,108.865014 Z M174.651057,107.928375 L172.697415,107.928375 L172.697415,106.082645 L171.641392,106.082645 L171.641392,110.903581 L172.697415,110.903581 L172.697415,108.892562 L174.651057,108.892562 L174.651057,110.903581 L175.707079,110.903581 L175.707079,106.082645 L174.651057,106.082645 L174.651057,107.928375 Z M181.684922,110.896694 L181.684922,106.075758 L182.740944,106.075758 L182.740944,110.896694 L181.684922,110.896694 Z M188.703701,106.075758 L190.415966,106.075758 C191.290956,106.075758 192,106.730028 192,107.528926 C192,108.327824 191.290956,108.975207 190.415966,108.975207 L189.759723,108.975207 L189.759723,110.903581 L188.703701,110.903581 L188.703701,106.075758 Z M189.759723,108.011019 L190.415966,108.011019 C190.702601,108.011019 190.943977,107.797521 190.943977,107.528926 C190.943977,107.260331 190.702601,107.039945 190.415966,107.039945 L189.759723,107.039945 L189.759723,108.011019 Z" id="DIGITAL-CRAFTSMANSHI" fill="#C8C8C8"></path>
        </g>
    </g>
</svg>
